svg/device/rss_line.svg

<?xml version="1.0" encoding="UTF-8"?>
<svg width="24px" height="24px" viewBox="0 0 24 24" version="1.1" xmlns="http://www.w3.org/2000/svg" xmlns:xlink="http://www.w3.org/1999/xlink">
    <title>rss_line</title>
    <g id="Icon" stroke="none" stroke-width="1" fill="none" fill-rule="evenodd">
        <g id="Device" transform="translate(-288.000000, -288.000000)" fill-rule="nonzero">
            <g id="rss_line" transform="translate(288.000000, 288.000000)">
                <path d="M24,0 L24,24 L0,24 L0,0 L24,0 Z M12.5935,23.2578 L12.5819,23.2595 L12.5109,23.295 L12.4919,23.2987 L12.4767,23.295 L12.4057,23.2595 C12.3958,23.2564 12.387,23.259 12.3821,23.2649 L12.378,23.2758 L12.3609,23.7031 L12.3659,23.7235 L12.3769,23.7357 L12.4805,23.8097 L12.4953,23.8136 L12.5071,23.8097 L12.6107,23.7357 L12.6233,23.7197 L12.6267,23.7031 L12.6096,23.2758 C12.6076,23.2657 12.601,23.2593 12.5935,23.2578 Z M12.8584,23.1453 L12.8445,23.1473 L12.6598,23.2397 L12.6499,23.2499 L12.6472,23.2611 L12.6651,23.6906 L12.6699,23.7034 L12.6784,23.7105 L12.8793,23.8032 C12.8914,23.8069 12.9022,23.803 12.9078,23.7952 L12.9118,23.7812 L12.8777,23.1665 C12.8753,23.1546 12.8674,23.147 12.8584,23.1453 Z M12.143,23.1473 C12.1332,23.1424 12.1222,23.1453 12.1156,23.1526 L12.1099,23.1665 L12.0758,23.7812 C12.0751,23.7927 12.0828,23.8019 12.0926,23.8046 L12.1083,23.8032 L12.3092,23.7105 L12.3186,23.7024 L12.3225,23.6906 L12.3404,23.2611 L12.3372,23.2485 L12.3278,23.2397 L12.143,23.1473 Z" id="MingCute"></path>
                <path d="M18,3 C19.597725,3 20.903664,4.24892392 20.9949075,5.82372764 L21,6 L21,18 C21,19.597725 19.7511226,20.903664 18.1762773,20.9949075 L18,21 L6,21 C4.40232321,21 3.09633941,19.7511226 3.00509271,18.1762773 L3,18 L3,6 C3,4.40232321 4.24892392,3.09633941 5.82372764,3.00509271 L6,3 L18,3 Z M18,5 L6,5 C5.48716857,5 5.06449347,5.38604429 5.0067278,5.88337975 L5,6 L5,18 C5,18.51285 5.38604429,18.9355092 5.88337975,18.9932725 L6,19 L18,19 C18.51285,19 18.9355092,18.613973 18.9932725,18.1166239 L19,18 L19,6 C19,5.48716857 18.613973,5.06449347 18.1166239,5.0067278 L18,5 Z M8.5,14 C9.32843,14 10,14.6716 10,15.5 C10,16.3284 9.32843,17 8.5,17 C7.67157,17 7,16.3284 7,15.5 C7,14.6716 7.67157,14 8.5,14 Z M8,10.5 C11.0376,10.5 13.5,12.9624 13.5,16 C13.5,16.5523 13.0523,17 12.5,17 C11.9477,17 11.5,16.5523 11.5,16 C11.5,14.067 9.933,12.5 8,12.5 C7.44772,12.5 7,12.0523 7,11.5 C7,10.9477 7.44772,10.5 8,10.5 Z M8.5,7 C13.1944,7 17,10.8056 17,15.5 C17,15.6899 16.9938,15.8786 16.9814,16.0657 C16.9452,16.6168 16.469,17.0341 15.9179,16.9978 C15.3668,16.9616 14.9495,16.4854 14.9858,15.9343 C14.9952,15.7909 15,15.6461 15,15.5 C15,11.9101 12.0899,9 8.5,9 C8.35391,9 8.20909,9.0048 8.06568,9.01424 C7.51459,9.05052 7.03843,8.63317 7.00216,8.08208 C6.96589,7.53099 7.38323,7.05483 7.93432,7.01856 C8.12143,7.00625 8.31006,7 8.5,7 Z" id="形状" fill="#09244B"></path>
            </g>
        </g>
    </g>
</svg>

<svg xmlns="http://www.w3.org/2000/svg" width="24" height="24"><g fill="none" fill-rule="nonzero"><path d="M24 0v24H0V0h24ZM12.594 23.258l-.012.002-.071.035-.02.004-.014-.004-.071-.036c-.01-.003-.019 0-.024.006l-.004.01-.017.428.005.02.01.013.104.074.015.004.012-.004.104-.074.012-.016.004-.017-.017-.427c-.002-.01-.009-.017-.016-.018Zm.264-.113-.014.002-.184.093-.01.01-.003.011.018.43.005.012.008.008.201.092c.012.004.023 0 .029-.008l.004-.014-.034-.614c-.003-.012-.01-.02-.02-.022Zm-.715.002a.023.023 0 0 0-.027.006l-.006.014-.034.614c0 .012.007.02.017.024l.015-.002.201-.093.01-.008.003-.011.018-.43-.003-.012-.01-.01-.184-.092Z"/><path fill="#09244B" d="M18 3a3 3 0 0 1 2.995 2.824L21 6v12a3 3 0 0 1-2.824 2.995L18 21H6a3 3 0 0 1-2.995-2.824L3 18V6a3 3 0 0 1 2.824-2.995L6 3h12Zm0 2H6a1 1 0 0 0-.993.883L5 6v12a1 1 0 0 0 .883.993L6 19h12a1 1 0 0 0 .993-.883L19 18V6a1 1 0 0 0-.883-.993L18 5Zm-9.5 9a1.5 1.5 0 1 1 0 3 1.5 1.5 0 0 1 0-3ZM8 10.5a5.5 5.5 0 0 1 5.5 5.5 1 1 0 1 1-2 0A3.5 3.5 0 0 0 8 12.5a1 1 0 1 1 0-2ZM8.5 7a8.5 8.5 0 0 1 8.481 9.066 1 1 0 1 1-1.995-.132 6.5 6.5 0 0 0-6.92-6.92 1 1 0 1 1-.132-1.995C8.121 7.006 8.31 7 8.5 7Z"/></g></svg>
